images/star-border.svg

<svg width="16" height="15" viewBox="0 0 16 15" fill="none" xmlns="http://www.w3.org/2000/svg">
<path d="M14.4375 5.42578L10.4453 4.85156L8.66797 1.24219C8.55859 1.02344 8.39453 0.877604 8.17578 0.804688C7.97526 0.731771 7.76562 0.731771 7.54688 0.804688C7.34635 0.877604 7.19141 1.02344 7.08203 1.24219L5.30469 4.85156L1.3125 5.42578C1.07552 5.46224 0.884115 5.57161 0.738281 5.75391C0.610677 5.9362 0.546875 6.13672 0.546875 6.35547C0.565104 6.57422 0.65625 6.76562 0.820312 6.92969L3.71875 9.74609L3.03516 13.7383C2.9987 13.957 3.03516 14.1576 3.14453 14.3398C3.27214 14.5404 3.44531 14.668 3.66406 14.7227C3.88281 14.7773 4.09245 14.75 4.29297 14.6406L7.875 12.7812L11.457 14.6406C11.6576 14.75 11.8672 14.7773 12.0859 14.7227C12.3047 14.668 12.4688 14.5404 12.5781 14.3398C12.7057 14.1576 12.7513 13.957 12.7148 13.7383L12.0312 9.74609L14.9297 6.92969C15.0938 6.76562 15.1758 6.57422 15.1758 6.35547C15.194 6.13672 15.1302 5.9362 14.9844 5.75391C14.8568 5.57161 14.6745 5.46224 14.4375 5.42578ZM10.6367 9.28125L11.2656 13.082L7.875 11.2773L4.48438 13.082L5.11328 9.28125L2.37891 6.60156L6.17969 6.05469L7.875 2.60938L9.57031 6.05469L13.3711 6.60156L10.6367 9.28125Z" fill="#FFBD69"/>
</svg>

<svg width="16" height="15" viewBox="0 0 16 15" fill="none" xmlns="http://www.w3.org/2000/svg"><path d="M14.438 5.426l-3.993-.574-1.777-3.61a.83.83 0 00-.492-.437.931.931 0 00-.63 0 .836.836 0 00-.464.437l-1.777 3.61-3.992.574a.88.88 0 00-.575.328 1.026 1.026 0 00-.191.601c.018.22.11.41.273.575l2.9 2.816-.684 3.992c-.036.219 0 .42.11.602.127.2.3.328.52.383a.844.844 0 00.628-.082l3.582-1.86 3.582 1.86c.2.109.41.136.629.082a.745.745 0 00.492-.383.786.786 0 00.137-.602l-.684-3.992L14.93 6.93a.787.787 0 00.246-.575.825.825 0 00-.192-.601.781.781 0 00-.546-.328zM10.636 9.28l.629 3.801-3.391-1.805-3.39 1.805.628-3.8-2.734-2.68 3.8-.547 1.696-3.446L9.57 6.055l3.801.547-2.734 2.68z" fill="#FFBD69"/></svg>
